X: 1
T: The Legacy
R: jig
M: 6/8
L: 1/8
K: Gmaj
~G3 ~B3|~g3 gab|~G3 ~B3|dBA AFD|
~G3 ~B3|~g3 gab|age edB|1dBA AFD:|2dBA ABd||
~e3 edB|ded dBd|~e3 edB|gdB ABd|
~e3 edB|ded def|~g3 ~e3|1dBA ABd:|2dBA AFD||


Tune 2259	Setting 15629

